X: 3194
T: Beehive, The
R: reel
M: 4/4
K: Eminor
|:E2B2 ed2A-|ABDE FGAB|EBeB fBgf-|fgef gb2E-|
E2B2 ed2A-|ABDE FGAB|eBgf- fgeg|fgeg fedB:|
|:GGED E2cA-|AAAG FGAB|GGED E2cA-|AGAB d4|
GGED E2cA-|AAAG FGAd|BBAG A2GE-|EEDE GE3:|

